!!!COM: Melli, Domenico Maria
!!!CDT:
!!!PTL: Le seconde musiche 
!!!PPP: Venice
!!!PPR: Giacomo Vincenti
!!!PDT: 1602
!!!PUB-format:
!!!RISM: M 1754
!!!OTL:	Ho visto al pianto mio
!!!act:
!!!scene:
!!!verse:
!!!AGN: 
!!!SCT: Tam1020338b
!!!SCA: Tam1020338b
!!!original-voices: 1+bc
!!!extant-voices: 1+bc
!!!complete: Y
!!!final: F
**kern	**kern	**text
*part2	*part1	*part1
*staff2	*staff1	*staff1
*I"B.c.	*I"Canto	*
*I'B	*I'C	*
*oclefF4	*oclefC1	*
*clefF4	*clefG2	*
*k[b-]	*k[b-]	*
*omet(C)	*omet(C)	*
*M4/2	*M4/2	*
=1	=1	=1
1F	1f	Ho
1D	1f#X	vi-
=2	=2	=2
1D	2f#X	-sto al
.	1g	pian-
1D	.	.
.	2f#X	-to
=3	=3	=3
1GG	1.b-y	mi-
[1D	.	.
.	[2a	-o
=4	=4	=4
2D]	2a]	.
2D	4r	.
.	4a	Ri-
2.BB-y	4.dd	-spon-
.	8dd	-der
.	4dd	per
4GG	4ee	pie-
=5	=5	=5
2AA	2cc#X	-ta-
2F	4a	-te i
.	4ccnXi	sas-
2FF	8ccL	.
.	8b-y	.
.	16a	.
.	16g	.
.	16f	.
.	16eJ	.
2BB-y	4d	-si
.	4dd	e
=6	=6	=6
2BB-y	16ddL	l'on-
.	16cc	.
.	16b-y	.
.	16cc	.
.	8dd	.
.	16cc	.
.	16b-yJ	.
1FF	4a	.
.	2b-y	.
.	4a	.
8BB-yL	2b-y	-de,
8BB-y	.	.
8BB-y	.	.
8AAJ	.	.
=7	=7	=7
2GG	8r	.
.	8b-y	E
.	8b-y	so-
.	8a	-spi-
8r	2g	-rar,
8E-XL	.	.
8E-i	.	.
8DJ	.	.
2C	8r	.
.	8ee-X	<E
.	8ee-i	so-
.	8dd	-spi-
8r	2cc	-rar,>
8CL	.	.
8C	.	.
8BB-yJ	.	.
=8	=8	=8
4AA	8r	.
.	8cc	E
4GG	8cc	so-
.	8b-y	-spi-
2D	4a	-rar
.	4dd	le
1D	8ddL	fron-
.	8cc	.
.	8b-y	.
.	16a	.
.	16gJ	.
.	2f#X	.
=9	=9	=9
1GG	1g	-de
2G	2b-y	Ma
4r	4r	.
8GL	8b-y	non
8DJ	8f	ho
=10	=10	=10
4E-X	4g	vi-
4BB-y	16b-yL	-sto
.	16g	.
.	16a	.
.	16b-yJ	.
1FF	2.cc	ma-
.	4b-y	.
2FF	2cc	-i,
=11	=11	=11
2F	8r	.
.	8cc	Né
.	8cc	spe-
.	8cc	-ro
4D	4.ff	di
4C	.	.
.	16eeL	ve-
.	16ddJ	.
2GG	2dd	-de-
2C	2cc	-re,
=12	=12	=12
2C	8r	.
.	8g	Com-
.	8g	-pas-
.	8g	-si-
1AA	[2a	-on
.	8a]	.
.	8a	nel-
.	8a	-la
.	8e	cru-
2AA	[2f#i	-del
=13	=13	=13
2AA	4f#X]	.
.	4f#X	e
1GG	2g	bel-
.	2g	-la,
2GG	4r	.
.	8g	Ch'io
.	8d	non
=14	=14	=14
2C	2e	so,
2C	4r	.
.	8cc	Ch'io
.	8g	non
2FF	4a	so
.	8cc	se
.	8a	mai
2BB-y	[2dd	Chia-
=15	=15	=15
2D	4dd]	.
.	4dd	-mi
2AA	4cc#X	Don-
.	16fL	-na o
.	16e	.
.	16f	.
.	16dJ	.
1AA	1e	Fe-
=16	=16	=16
1D	1d	-ra,
1BB-y	2r	.
.	2dd	Ma
=17	=17	=17
2E-X	4.ee-X	ne-
.	8dd	-ga
2G	4cc	d'es-
.	8b-y	-ser
.	8b-y	Don-
1F	1cc	.
=18	=18	=18
2F	2cc	-na
[2F	4r	.
.	8cc	Poi
.	8cc	che
2F]	2.dd	ne-
2F	.	.
.	16ccL	.
.	16b-yJ	.
.	8aJL	-ga
=19	=19	=19
2G	4bnXi	pie-
.	2cc	-ta-
2GG	.	.
.	4bni	.
1C	2.cc	-te
.	4g	A
=20	=20	=20
1GG	4.g	chi
.	8a	non
.	4b-y	la
.	4cc	ne-
2D	2a	-ga-
2AA	4.a	-ro
.	8f	Le
=21	=21	=21
4BB-y	[2f	co-
4C	.	.
4D	8f]	.
.	8g	-se in-
4BB-y	8g	-na-
.	8g	-ni-
1C	1g	-ma-
=22	=22	=22
0FFl	0fl	-te.
==	==	==
*-	*-	*-
!!!system-decoration: [*]
!!!RDF**kern: i = editorial accidental
!!!RDF**kern: l = terminal long
!!!ENC: Emiliano Ricciardi
!!!END: 2017/10/15
!!!EED: Coluzzi, Seth
!!!EEV: 2018/07/13
!!!YEC: Copyright 2018 Emiliano Ricciardi, All Rights Reserved
!!!ONB: Translated from MusicXML on 2018/07/13 and edited by Craig Stuart Sapp
!!@@BEGIN:	VERSEDATA
!!@CATALOGNUM:	Tam1020338
!!@LAST_MODIFIED: 2020/07/12
!!@ACT:      1
!!@SCENE:    2
!!@VERSE:    338
!!@TITLE:    Ho visto al pianto mio
!!@MANUSRC:	A-Am, A-Au, A-Br, A-CM, A-F, A-Ub
!!@PRINTSRC:	A-1580D, A-1580M, A-1581B, A-1581B<sub>bis</sub>, A-1581M, A-1581M<sub>bis</sub>, A-1581O, A-1581V, A-1582B, A-1583M, A-1583V, A-1584A, A-1585C, A-1585V, A-1585V<sub>bis</sub>, A-1588B, A-1589M, A-1589V, A-1590Mb, A-1590Mv, A-1591M, A-1591W, A-1592B, A-1596B, A-1596M, A-1599Bf, A-1599Bp, A-1600R, A-1601Bf, A-1601Bp, A-1602B, A-1603Bf, A-1603Bv, A-1603Z, A-1605R, A-1606Z, A-1608D, A-1608DP, A-1609Bf, A-1609Bv, A-1609Z, A-1611D, A-1614GT, A-1617D, A-1618B, A-1619D, A-1619I, A-1620V, A-1622D, A-1623A, A-1624M, A-1624S, A-1624T, A-1625U, A-1628U, A-1632D, A-1634R
!!@@BEGIN:	VERSES
!!@ABOUTIT:	
!!@ABOUTEN:	
!!@EDITOR:	Solerti, Angelo
!!@EDITION_TITLE: Opere minori in versi di Torquato Tasso. Edizione critica sugli autografi e sulle antiche stampe.
!!@EDITION_LOC:	Bologna
!!@EDITION_PUB:	Zanichelli
!!@EDITION_DATE:  1895
!!@EDITION_VOL:	3
!!@EDITION_PAGE:
!!@TRANSLATOR:	Emiliano Ricciardi and Amyrose McCue Gill
!!@VERSE:	
!!	Ho visto al pianto mio
!!	Risponder per pietate i sassi e l'onde,
!!	E sospirar le fronde
!!	Ho visto al pianto mio;
!!	Ma non ho visto mai,
!!	Né spero di vedere,
!!	Compassion ne la crudele e bella
!!	Che non so s'io mi chiami o donna o fera:
!!	Ma niega d'esser donna,
!!	Poiché niega pietate
!!	A chi non la negaro
!!	Le cose inanimate.
!!@TVERSE:
!!	I have seen to my lament
!!	Respond, out of compassion, the stones and the waves,
!!	And the leafy branches sigh,
!!	I have seen to my lament;
!!	But I have never seen
!!	Nor hope to see
!!	Compassion in the cruel and beautiful [one]
!!	Whom I know not if I should call woman or wound:
!!	But she denies being a woman,
!!	Just as she denies compassion
!!	To he who is not denied it [by]
!!	Inanimate objects.
!!@@END:		VERSES
!!@NEW_CRIT_ED:   Torquato Tasso, <i>Aminta. "Princeps."</i>, ed. Matteo Navone, vol. 9 of Commissione Nazionale per l'Edizione delle opere del Tasso. Studi e Testi (Alessandria: Edizioni dell'Orso, 2014).
!!@ATTRIBUTION_ABOUT:	
!!@DATING:	1573
!!@DEDICATEE:	
!!@COMMENTARY:
!!@@END:		VERSEDATA
!!@@BEGIN: SETTING
!!@CATALOGNUM:	Tam1020338b
!!@ACT:		I
!!@SCENE:		2
!!@VERSE:		338
!!@TITLE:		Ho visto al pianto mio
!!@COMPOSER:	Melli, Domenico Maria
!!@PRINCEPSTITLE:	Le seconde musiche 
!!@PRINCEPSLOC:	Venice
!!@NORMLOC:	Venice
!!@NORMPUB:	Giacomo Vincenti
!!@NORMPUBSHORT:	G. Vincenzi
!!@PRINCEPSPUB:	Appresso Giacomo Vincenti
!!@PRINCEPSYEAR:	1602
!!@PRINCEPSRISM:	M 1754
!!@OVOICES:	1+bc
!!@EXTANTVOICES:	1+bc
!!@OMENSURATION:	C
!!@OCLEFS:	C1,F4
!!@OTIME:		
!!@OKEYSIG:	b-
!!@FINAL:		F
!!@TIMPEDITOR:	Coluzzi, Seth
!!@PARTS:		1 of 1
!!@REPRINTS:	M 1755
!!@@END: SETTING
